src/icons/outline/communication/assignment.svg

<svg width="24" height="24" viewBox="0 0 24 24" fill="none" xmlns="http://www.w3.org/2000/svg">
<g clip-path="url(#clip0_5089_931)">
<path d="M17.1143 11.9434C17.1804 11.9521 17.2477 11.9655 17.3125 11.9805C20.5808 12.8705 23 15.9604 23 19.6504C22.9998 20.9501 21.9903 21.9998 20.7412 22H5.96777C4.75855 21.9998 3.76895 21.0094 3.70898 19.7695C4.19874 20.2795 4.86905 20.5 5.46875 20.5C5.56858 20.5 5.6783 20.4897 5.78809 20.4697C5.84793 20.4897 5.90793 20.5 5.96777 20.5H20.7305C21.1701 20.5 21.5398 20.1202 21.54 19.6504C21.54 16.7304 19.6513 14.1697 16.9326 13.4297H16.9229C16.9038 13.4297 16.8756 13.4396 16.873 13.4404C15.8036 14.0504 14.5739 14.3701 13.3545 14.3701C13.0347 14.3701 12.725 14.3495 12.4053 14.3096L12.3447 14.1602C12.1549 13.6702 11.8054 13.3001 11.4756 13.0801L9.7959 11.9297C10.0556 11.9297 10.2956 12 10.5254 12.1299C11.365 12.6099 12.335 12.8799 13.3545 12.8799C14.3739 12.8799 15.3431 12.6098 16.1826 12.1299C16.4125 11.9999 16.663 11.9297 16.9229 11.9297L17.1143 11.9434Z" fill="#3C3B44"/>
<path d="M4.99219 12.459C4.12262 11.819 5.14209 10.689 5.97168 11.249C6.40844 11.547 7.04837 11.9854 7.73145 12.4531C8.76815 13.163 9.9044 13.9404 10.5791 14.3984C10.729 14.4784 10.8287 14.6488 10.8887 14.7988C10.9586 15.1088 10.8485 15.3987 10.5986 15.5986L5.97168 18.749C5.18207 19.349 4.12262 18.1984 4.99219 17.5684L7.37012 15.9482L7.63086 15.7588H1.8291C1.36961 15.7586 1.00009 15.4186 1 15.0088C1 14.5989 1.36955 14.259 1.8291 14.2588H7.63086L7.37012 14.0791C7.14214 13.9228 6.78065 13.6771 6.39746 13.417C5.87366 13.0615 5.3098 12.6785 4.99219 12.459Z" fill="#3C3B44"/>
<path fill-rule="evenodd" clip-rule="evenodd" d="M13.3545 2C15.8931 2 17.9421 4.13975 17.9424 6.76953C17.9424 9.39953 15.8932 11.54 13.3545 11.54C10.8158 11.54 8.7666 9.39949 8.7666 6.76953C8.76684 4.13978 10.816 2.00006 13.3545 2ZM13.3545 3.5C11.6156 3.50006 10.2063 4.96978 10.2061 6.76953C10.2061 8.56949 11.6154 10.04 13.3545 10.04C15.0936 10.04 16.4932 8.56953 16.4932 6.76953C16.4929 4.96974 15.0935 3.5 13.3545 3.5Z" fill="#3C3B44"/>
</g>
<defs>
<clipPath id="clip0_5089_931">
<rect width="24" height="24" fill="white"/>
</clipPath>
</defs>
</svg>

<svg xmlns="http://www.w3.org/2000/svg" width="24" height="24" fill="none" viewBox="0 0 24 24"><g fill="currentColor" clip-path="url(#a)"><path d="M17.114 11.943q.1.015.198.037c3.269.89 5.688 3.98 5.688 7.67 0 1.3-1.01 2.35-2.259 2.35H5.968c-1.21 0-2.199-.99-2.259-2.23.49.51 1.16.73 1.76.73.1 0 .21-.01.32-.03q.089.03.179.03H20.73c.44 0 .809-.38.809-.85 0-2.92-1.889-5.48-4.607-6.22h-.01c-.02 0-.047.01-.05.01a7.15 7.15 0 0 1-4.468.87l-.06-.15c-.19-.49-.54-.86-.87-1.08l-1.68-1.15c.26 0 .5.07.73.2.84.48 1.81.75 2.83.75a5.7 5.7 0 0 0 2.828-.75c.23-.13.48-.2.74-.2z"/><path d="M4.992 12.459c-.87-.64.15-1.77.98-1.21l1.76 1.204c1.036.71 2.172 1.487 2.847 1.945.15.08.25.25.31.4.07.31-.04.6-.29.8L5.972 18.75c-.79.6-1.85-.55-.98-1.18l2.378-1.62.26-.19h-5.8c-.46 0-.83-.34-.83-.75s.37-.75.83-.75h5.8l-.26-.18-.973-.662a253 253 0 0 1-1.405-.958"/><path fill-rule="evenodd" d="M13.355 2c2.538 0 4.587 2.14 4.587 4.77s-2.049 4.77-4.587 4.77c-2.54 0-4.588-2.14-4.588-4.77S10.816 2 13.355 2m0 1.5c-1.74 0-3.149 1.47-3.149 3.27s1.41 3.27 3.149 3.27 3.138-1.47 3.138-3.27-1.4-3.27-3.138-3.27" clip-rule="evenodd"/></g><defs><clipPath id="a"><path fill="currentColor" d="M0 0h24v24H0z"/></clipPath></defs></svg>
